X: 06071
T: OMER'S REEL
C: Bob McQuillen 6 April 82
B: Bob's Note Book 6 #71
%R: reel, polka
Z: 2021 John Chambers <jc:trillian.mit.edu>
M: C
L: 1/8
K: D
de \
| f2fe defg | f2d2 d2ed | c2e2 e2ed | c2e2 e2de |\
| f2d2 defg | a2f2 f2df | e2ed e2f2 | d6 :|
|: fg \
| a2fg a2fa | g2e2 e3d | cdef g2fe | d2f2 f2fg |\
| a2fa gfed | c2e2 e3f | gfed c2e2 | d6 :|
%%begintext align
%% We all
%% lost a dear friend when Omer Marcoux,
%% one of New Hampshire's best known
%% French-Canadian fiddlers, passed away.
%%endtext

%%sep 1 1 500

%%sep 1 1 500

